X:1
T:Bundeslied
T:Friedrich Silcher
T:Aloys Schreiber
T:Bundeslied
T:CPDL   —   Creative Commons Attribution Non Commercial 3.0
C:Friedrich Silcher
Z:Aloys Schreiber
Z:CPDL   —   Creative Commons Attribution Non Commercial 3.0
%%score [ ( 1 2 ) ( 3 4 ) ]
L:1/8
Q:1/4=90
M:4/4
K:A
V:1 treble-8 nm="Tenor"
V:2 treble-8 
V:3 bass nm="Bass"
V:4 bass 
V:1
"^Andante sostenuto" e2 e2 | a2 c2 Bf ed | dc c2 B2 e2 | ca gf e2 ^d2 | e4 :| e2 e2 | ef ga gf ed | %7
w: 1.  Hehr und|hei- lig ist * die *|Stun- * de, Brü- der,|die * uns * hier ver-|eint|||
w: zu dem|gro- ßen, schö- * nen *|Bun- * de, dem der|Stern * der * Lie- be|scheint.|Zei- ten|kom- * men, * Zei- * ten *|
w: 2.  Dem Ver-|gäng- li- chen * er- *|ge- * ben ist der|Men- * schen * nied'- rer|Sinn,|||
w: un- ser|Wol- len, un- * ser *|Stre- * ben geht auf|blei- * ben- * den Ge-|winn.|Vie- les|wird * dem * Tag * zum *|
w: 6.  Brü- der,|bie- tet euch * die *|Hän- * de, die ihr|euch * dem * Bund ge-|weiht,|||
w: oh- ne|An- fang, oh- * ne *|En- * de, wie der|Ring * der * E- wig-|keit.|Die den|Preis * des * Le- * bens *|
 dc c2 f2 ed | ce af e>d c>B | B>A A2 |] %10
w: ge- * hen, un- ser *|Bund, * er * wird * be- *|ste- * hen.|
w: Rau- * be, a- ber *|nim- * mer * un- * ser *|Glau- * be.|
w: ken- * nen, mag das *|Ir- * di- * sche * nicht *|tren- * nen.|
w: |||
w: |||
w: |||
V:2
 c2 c2 | c2 c2 B2 B2 | BA A2 G2 B2 | Ac c2 B2 B2 | B4 :| GA Bc | d2 dc ed cB | BA A2 d2 B2 | %8
 Ac cd c>B A>G | G>A E2 |] %10
V:3
 A,2 A,2 | A,2 A,2 F,2 G,2 | E,2 E,2 E,2 E,2 | E,A, B,A, G,2 F,2 | G,4 :| E,F, G,A, | %6
 B,2 B,A, CA, A,G, | G,A, A,2 A,2 G,2 | E,A, A,2 E,2 E,2 | D,>C, C,2 |] %10
V:4
 A,,2 A,,2 | F,,2 F,E, D,2 E,2 | A,,2 A,,2 E,2 G,,2 | A,,F,, G,,A,, B,,2 B,,2 | E,4 :| E,2 E,2 | %6
 E,2 E,F, C,D, E,2 | E,F, F,2 D,2 E,2 | A,,2 F,D, E,2 E,2 | A,,2 A,,2 |] %10

